X: 1
T:N°82 Anglaisse
C:trad
O:Belgium
S:JAMIN manuscript page 50-051
Z:ABC transcription Olivier VIENNE troubadourwallon@gmail.com
M:2/4
L:1/16
K:Gmaj
d2|dBge d2d2|cBcA GDGB|AGAc BGBd|gdcB A2
d2|dBge d2d2|cBcA Ggfe|edBd dcBA|G2G2 G2:|
|:B2|ADDD DABc|BGGG GBdB|cBAG FGAB|AFGE D2
B2|ADDD DABc|BGGG Ggfe|edBd dcBA|G2G2 G2"2fois":|]:





